X:383
T:Farewell to Whisky
C:Niel Gow
S:Forgotten
Z:Nigel Gatherer
L:1/8
M:4/4
K:G
z2 | D2 G2 B2 AB | G2 E2 E2 GE | D2 G2 B2 AB | d2 B2 B3 d |
     e2 fg d2 B2 | cBAG  A2 B2 | D3 G  BAGA  | B2 G2 G2  :|
Bc | d2 B2 g2 B2 | cBAG  A2 Bc | d3 e  d2 Bc | d2 g2 g3 d |
     e2 fg edcB  | cBAG  A2 B2 | D3 G  BAGA  | B2 G2 G2  :|
<end>
<start>
